static/wiener-melange/assets/icons/pins/pin-golf.svg

<svg fill="none" height="54" width="48" xmlns="http://www.w3.org/2000/svg" xmlns:xlink="http://www.w3.org/1999/xlink"><filter id="a" color-interpolation-filters="sRGB" filterUnits="userSpaceOnUse" height="53.429" width="48" x="0" y="0"><feFlood flood-opacity="0" result="BackgroundImageFix"/><feColorMatrix in="SourceAlpha" values="0 0 0 0 0 0 0 0 0 0 0 0 0 0 0 0 0 0 127 0"/><feOffset dy="4"/><feGaussianBlur stdDeviation="5"/><feColorMatrix values="0 0 0 0 0.254902 0 0 0 0 0.254902 0 0 0 0 0.254902 0 0 0 0.49 0"/><feBlend in2="BackgroundImageFix" result="effect1_dropShadow"/><feBlend in="SourceGraphic" in2="effect1_dropShadow" result="shape"/></filter><g filter="url(#a)"><path clip-rule="evenodd" d="m25.391 38.736c-.378.364-.84.693-1.391.693-.552 0-1.024-.313-1.391-.693-3.193-3.304-12.609-10.328-12.609-19.145 0-7.506 6.268-13.591 14-13.591s14 6.085 14 13.591c0 8.817-9.169 15.841-12.609 19.145z" fill="#fff" fill-rule="evenodd"/></g><path clip-rule="evenodd" d="m24 31.768c6.572 0 11.9-5.3 11.9-11.84 0-6.538-5.328-11.838-11.9-11.838s-11.9 5.3-11.9 11.84c0 6.538 5.328 11.839 11.9 11.839z" fill="#f3f1ef" fill-rule="evenodd"/><g fill="#1a1a18" transform="matrix(.1 0 0 .1 14 10)" viewBox="0 0 200 200"><path d="m67.58 69.41a14.69 14.69 0 1 0 -2.42.2 15.19 15.19 0 0 0 2.42-.2zm-5.19-10.71a4.81 4.81 0 0 1 2-8.64 5.35 5.35 0 0 1 .79-.06 4.7 4.7 0 0 1 2.79.91 4.8 4.8 0 0 1 -5.61 7.79z"/><path d="m155.2 169.91a5.1 5.1 0 1 0 4.9 5.3 5.11 5.11 0 0 0 -4.9-5.3z"/><path d="m112.24 64.47 2.76-1.38v-3.09c0-10.69-5-25.94-5.26-26.58l-.86-2.61-66.79-16.64-6.59 13.66 9 4.34 3.06-6.34 53.5 13.34a100.86 100.86 0 0 1 3.79 17.77c-12.36 5.83-41.5 18.33-41.85 18.46l-5.65 2.43 3.52 5c9.44 13.47 23.83 28.51 32.81 37.44-3.31 10.34-12 31.86-32.55 56.49l7.68 6.4c23.84-28.6 32.65-53.55 35.34-62.95l.81-2.86-2.12-2.08c-7.43-7.3-20.45-20.58-30.12-33.2 4.7-2 11.65-5 18.56-8.09l18.69 42v64.02h10v-66.06l-19.52-43.94c4.89-2.25 9.16-4.21 11.79-5.53z"/></g></svg>

<svg width="48" height="54" fill="none" xmlns="http://www.w3.org/2000/svg">
	<g filter="url(#a)">
		<path fill-rule="evenodd" clip-rule="evenodd" d="M25.391 38.736c-.378.364-.84.693-1.391.693-.552 0-1.024-.313-1.391-.693C19.416 35.432 10 28.408 10 19.591 10 12.085 16.268 6 24 6s14 6.085 14 13.591c0 8.817-9.169 15.841-12.609 19.145Z" fill="#fff"/>
	</g>
	<path fill-rule="evenodd" clip-rule="evenodd" d="M24 31.768c6.572 0 11.9-5.3 11.9-11.84C35.9 13.39 30.572 8.09 24 8.09s-11.9 5.3-11.9 11.84c0 6.538 5.328 11.839 11.9 11.839Z" fill="#f3f1ef"/>

	<g viewBox="0 0 200 200" transform="translate(14 10) scale(0.1)">
		<path class="cls-1" d="M67.58,69.41a14.69,14.69,0,1,0-2.42.2A15.19,15.19,0,0,0,67.58,69.41ZM62.39,58.7a4.81,4.81,0,0,1,2-8.64,5.35,5.35,0,0,1,.79-.06,4.7,4.7,0,0,1,2.79.91,4.8,4.8,0,0,1-5.61,7.79Z"/><path class="cls-1" d="M155.2,169.91a5.1,5.1,0,1,0,4.9,5.3A5.11,5.11,0,0,0,155.2,169.91Z"/><path class="cls-1" d="M112.24,64.47,115,63.09V60c0-10.69-5-25.94-5.26-26.58l-.86-2.61L42.09,14.17,35.5,27.83l9,4.34,3.06-6.34,53.5,13.34a100.86,100.86,0,0,1,3.79,17.77C92.49,62.77,63.35,75.27,63,75.4l-5.65,2.43,3.52,5c9.44,13.47,23.83,28.51,32.81,37.44-3.31,10.34-12,31.86-32.55,56.49l7.68,6.4c23.84-28.6,32.65-53.55,35.34-62.95l.81-2.86-2.12-2.08c-7.43-7.3-20.45-20.58-30.12-33.2,4.7-2,11.65-5,18.56-8.09l18.69,42V180h10V113.94L100.45,70C105.34,67.75,109.61,65.79,112.24,64.47Z"/>
	</g>

	<defs>
	<style>.cls-1{fill:#1a1a18;}</style>
		<filter id="a" x="0" y="0" width="48" height="53.429" filterUnits="userSpaceOnUse" color-interpolation-filters="sRGB">
			<feFlood flood-opacity="0" result="BackgroundImageFix"/>
			<feColorMatrix in="SourceAlpha" values="0 0 0 0 0 0 0 0 0 0 0 0 0 0 0 0 0 0 127 0"/>
			<feOffset dy="4"/>
			<feGaussianBlur stdDeviation="5"/>
			<feColorMatrix values="0 0 0 0 0.254902 0 0 0 0 0.254902 0 0 0 0 0.254902 0 0 0 0.49 0"/>
			<feBlend in2="BackgroundImageFix" result="effect1_dropShadow"/>
			<feBlend in="SourceGraphic" in2="effect1_dropShadow" result="shape"/>
		</filter>
	</defs>
</svg>
